web/public/images/3p-logos/community/twitter.svg

<svg width="77" height="63" viewBox="0 0 77 63" fill="none" xmlns="http://www.w3.org/2000/svg">
<path d="M68.9119 15.8395C68.9585 16.5097 68.9585 17.1798 68.9585 17.8562C68.9585 38.4639 53.1859 62.231 24.3451 62.231V62.2187C15.8254 62.231 7.48272 59.8037 0.310547 55.2269C1.54938 55.3751 2.79442 55.4492 4.04256 55.4523C11.103 55.4585 17.9616 53.1022 23.5161 48.7632C16.8066 48.6366 10.9229 44.2853 8.86748 37.9328C11.2178 38.3837 13.6396 38.291 15.9465 37.6641C8.63151 36.1941 3.36881 29.8014 3.36881 22.3773C3.36881 22.3094 3.36881 22.2445 3.36881 22.1797C5.54841 23.3872 7.98881 24.0573 10.4851 24.1314C3.59547 19.5516 1.47176 10.4351 5.63224 3.30748C13.593 13.0509 25.3386 18.9741 37.9474 19.601C36.6837 14.1842 38.41 8.50807 42.4836 4.70027C48.7988 -1.20443 58.7312 -0.901787 64.6676 5.3766C68.1792 4.68792 71.5449 3.4063 74.6249 1.59042C73.4543 5.20057 71.0046 8.26718 67.7321 10.2159C70.8401 9.85145 73.8766 9.0238 76.7361 7.76071C74.6311 10.8984 71.9795 13.6314 68.9119 15.8395Z" fill="#1D9BF0"/>
</svg>

<svg fill="none" height="63" width="77" xmlns="http://www.w3.org/2000/svg"><path d="M68.912 15.84c.046.67.046 1.34.046 2.016 0 20.608-15.772 44.375-44.613 44.375v-.012A44.563 44.563 0 0 1 .311 55.227a31.593 31.593 0 0 0 23.206-6.464c-6.71-.126-12.594-4.478-14.65-10.83 2.35.45 4.773.358 7.08-.269-7.315-1.47-12.578-7.863-12.578-15.287v-.197a15.644 15.644 0 0 0 7.116 1.951c-6.89-4.58-9.013-13.696-4.853-20.824 7.961 9.744 19.707 15.667 32.315 16.294a15.552 15.552 0 0 1 4.537-14.9c6.315-5.905 16.247-5.603 22.184.676a31.567 31.567 0 0 0 9.957-3.787 15.67 15.67 0 0 1-6.893 8.626 31.314 31.314 0 0 0 9.004-2.455 31.758 31.758 0 0 1-7.824 8.078z" fill="#1d9bf0"/></svg>
